!!!OTL: Zou xikou
!!!ARE: Asia, China,ˇHebei, Zhangbei
!! IV, 99
!!!SCT: C1651
!!!YEM: Copyright 1995, estate of Helmut Schaffrath.
**kern
*ICvox
*Ivox
*M2/4
*k[]
*C:
{4dd
8dd
8dd
=1
8.cc
16dd
8ee
8ee
=2
4.dd
8ee
=3
4cc
4a}
=4
{4ee
8ee
8ee
=5
8dd
8dd
8b
8a
=6
4.g
8a
=7
4.g
8r}
=8
{8a
8e
[4d
=9
4d]
8ee
8ee
=10
8.dd
16ee
8b
8a
=11
8g
8e
8g}
{8a
=12
8.cc
16cc
8cc
8dd
=13
8a
8e
8g
8e
=14
4.d
8e
=15
4d
4r}
==
!!!AGN: Xiaodiao. NannÅ liqing
!!!AMT: simple duple
!!!AIN: vox
!!!EED: Helmut Schaffrath
!!!EEV: 1.0
*-
!!!ONB: Tied note syntax fixed by Craig Sapp, 2004/05/03/
